X:1
T:Title
%%score 1 2 3
L:1/8
Q:1/4=110
M:4/4
K:Ab
V:1 treble nm="French Horn, Soprano"
V:2 treble nm="Grand Piano, Staff-1"
V:3 bass nm="Choir Pad, Park Place, 76.76 D"
V:1
 A2 A2 A2 A2 | A2 A2 G4 | G2 G2 A2 A2 | G2 A6 | A2 A2 A2 A2 | A2 A2 G4 | G2 G2 A2 A2 | G2 A6 | %8
w: By~Anonymous,~1864 * * *||||||||
 A2 A2 A2 A2 | A2 A2 A4 | A2 G2 A2 G2 | A2 G6 | G2 A2 A2 A2 | A2 A2 d4 | A2 A2- AA A2 | G2 A6- | %16
w: ||||||||
 A2 z2 z4 |] %17
w: |
V:2
 [CE]2 [Ec]2 [Ec]2 [Fd]2 | [Ec]2 [Ec]2 [DB]4 | [DB]2 [DB]2 [CA]2 [Ec]2 | [DB]2 [CA]6 | %4
 [CE]2 [Ec]2 [Ec]2 [Fd]2 | [Ec]2 [Ec]2 [DB]4 | [DB]2 [DB]2 [CA]2 [Ec]2 | [DB]2 [CA]6 | %8
 [Ec]2 [Fd]2 [Fd]2 [Fd]2 | [Fd]2 [Fd]2 [Ec]4 | [CA]2 [DB]2 [CA]2 [DB]2 | [Ec]2 [EB]6 | %12
 E2 [Ec]2 [Ec]2 [DB]2 | [CA]2 [DF]2 [FA]4 | [DF]2 [CE]2- [CE][Ec] [Ec]2 | [DB]2 [CA]6- | %16
 [CA]2 z2 z4 |] %17
V:3
 A,2 A,2 A,2 A,2 | A,2 E,2 E,4 | E,2 E,2 E,2 E,2 | E,2 A,,6 | A,2 A,2 A,2 A,2 | A,2 E,2 E,4 | %6
 E,2 E,2 E,2 E,2 | E,2 A,,6 | A,2 D,2 D,2 D,2 | D,2 A,2 A,4 | A,,2 E,2 E,2 E,2 | E,2 E,6 | %12
 E,2 A,2 A,2 A,2 | A,2 D,2 D,4 | D,2 E,2- E,E, E,2 | E,2 A,,6- | A,,2 z2 z4 |] %17

